X:746
T:New Year's Day
R:Strathspey
B:The Athole Collection
M:C|
L:1/8
K:A Minor
d|G>G G>A _B>cd>f|e<c f>d e<c f>d|G>G G>A _B>cd>^f|g>e=f>d ~c2c:|
|:e/f/|g>c e<g f>_B d<f|g<c e>c g>fe>c|(3faf (3ege f>_B d<^f|g<e =f>d ~c2c:|

